X: 5536
T: Burning Snowball, The
R: jig
M: 6/8
K: Aminor
|:ABd e2g|ged B2A|G3 d2e|edB edB|
ABd e2g|ged B2A|GBd g2e|dBG A2 z:|
|:g2e a2g|ged B2A|G3 d2e|edB edB|
gee aee|ged B2A|GBd g2e|dBG Az|
g2e a2g|ged B2A|G3 d2e|edB edB|
gee aee|ged B2A|Gz3 z2g|age dBG||

